symbols/web/disabled_by_default/materialsymbolssharp/disabled_by_default_wght200_20px.svg

<svg xmlns="http://www.w3.org/2000/svg" height="20" width="20"><path d="M4.25 15.75h11.5V4.25H4.25Zm-.917.917V3.333h13.334v13.334ZM7 13.646l3-3 3 3 .646-.646-3-3 3-3L13 6.354l-3 3-3-3L6.354 7l3 3-3 3ZM4.25 15.75V4.25v11.5Z"/></svg>

<svg xmlns="http://www.w3.org/2000/svg" height="20" width="20"><path d="M4.25 15.75H15.75V4.25H4.25ZM3.333 16.667V3.333H16.667V16.667ZM7 13.646 10 10.646 13 13.646 13.646 13 10.646 10 13.646 7 13 6.354 10 9.354 7 6.354 6.354 7 9.354 10 6.354 13ZM4.25 15.75V4.25V15.75Z"/></svg>
